X:516
T: Youchun, 2)
N: C1934
O: China, Henan Shangcheng
S: IV, 110, 2)]
R: Xiaodiao, Chuiginshan]
M: 2/4
L: 1/16
K: Bb
b2cdcbg2 | fdf4g2 | b3cf2d2 | c8
f4f2d2 | c3dc2b2 | gbgfd2cd | f8
c2dcb2gb | c2dcb4 | d3fg2b2 | fgfdf4
b3cb2g2 | f2d2f4 | b3cb2g2 | fgfdf4
d3fg2b2 | f2g2f2d2 | b4c2d2 | g2f4c2 | f2gbd2c2 | B8
d2zcb2d2 | c2b2gfd2 | d3fg2b2 | f2gbf2d2
b4c2d2 | g2f4c2 | f2gbd2c2 | B8

